X: 101
T:Marriage March 2
M:6/8
L:1/8
Q:1/8=120
K:G
D2 E D2 G|D2 G B3|ABc E2 F|E3 D3|
D2 E D2 G|D2 G B3|ABc E2 F|G3 G3:||
DGB d2 c|Bcd G3|ABc E2 F|E3 D3|
DGB d2 c|Bcd G3|ABc E2 F|G3 G3:||
